icon/fa/wheat-awn-circle-exclamation.svg

<svg xmlns="http://www.w3.org/2000/svg" viewBox="0 0 640 512"><!--! Font Awesome Free 6.1.2 by @fontawesome - https://fontawesome.com License - https://fontawesome.com/license/free (Icons: CC BY 4.0, Fonts: SIL OFL 1.1, Code: MIT License) Copyright 2022 Fonticons, Inc.--><path d="M416.1 128.1c-8.5 10.2-23.7 10.2-33.1 0-9.3-8.5-9.3-23.7 0-33.07l88-88.001c9.4-9.372 24.6-9.372 33.1 0 10.2 9.371 10.2 24.571 0 33.941l-88 87.13zm-99.3-89.47c4.5 4.52 8.6 9.31 12.3 14.3L375 7.029c9.4-9.372 24.6-9.372 33.1 0 10.2 9.371 10.2 24.571 0 33.941L350.7 99.2c5.2 21.5 4.7 44-1.4 65.3 20.3-5.8 41.8-7.4 62.4-2.1L471 103c9.4-9.34 24.6-9.34 33.1 0 10.2 9.4 10.2 24.6 0 33.1l-45.3 47c4.5 3.2 8.8 6.7 12.9 10.6-45.4 6.2-85.2 29.8-112.6 63.7-7.1-4.1-13.7-9.1-19.7-15.1l-12.2-12.2-31.9 31c17.2 2.5 34.2 7.7 49.7 16.3-15.9 26.5-25 57.5-25 90.6v3.1c-29.1 4.5-60-4.5-82.4-27l-12.2-12.2-31.9 31.9c27.6 2.7 56.2 15 78 36.9l11.3 10.4c6.3 7.1 6.3 17.3 0 23.5l-11.3 11.3c-37.5 37.5-98.2 37.5-135.7 0l-12.3-12.2-68.87 68.9c-12.5 12.5-32.76 12.5-45.258 0-12.496-12.5-12.496-32.7 0-45.2l68.918-68.9L67.88 378c-37.49-37.4-37.49-98.2 0-135.7l11.32-12.2c6.24-5.4 16.37-5.4 22.6 0l11.3 12.2c21 21 33.2 47.4 36.6 74.8l30.4-30.5-10.4-10.4c-37.5-37.5-37.5-98.3 0-135.7l11.3-11.4c6.3-6.2 16.4-6.2 22.6 0l10.5 11.4c21 20.9 34 47.4 37.4 74.8l30.4-30.5-10.4-10.4c-37.5-37.5-37.5-98.28 0-135.77l11.3-11.32c6.3-6.25 16.4-6.25 22.7 0l11.3 11.32zM352 368c0-79.5 64.5-144 144-144s144 64.5 144 144-64.5 144-144 144-144-64.5-144-144zm144 96c13.3 0 24-10.7 24-24s-10.7-24-24-24-24 10.7-24 24 10.7 24 24 24zm-16.9-176v80c0 8.8 8.1 16 16 16 9.7 0 16-7.2 16-16v-80c0-8.8-6.3-16-16-16-7.9 0-16 7.2-16 16z"/></svg>

<svg xmlns="http://www.w3.org/2000/svg" viewBox="0 0 640 512" height="1em" width="1em">
<!--! Font Awesome Free 6.1.2 by @fontawesome - https://fontawesome.com License - https://fontawesome.com/license/free (Icons: CC BY 4.0, Fonts: SIL OFL 1.1, Code: MIT License) Copyright 2022 Fonticons, Inc.-->
  <path d="M416.1 128.1C407.6 138.3 392.4 138.3 383 128.1C373.7 119.6 373.7 104.4 383 95.03L471 7.029C480.4-2.343 495.6-2.343 504.1 7.029C514.3 16.4 514.3 31.6 504.1 40.97L416.1 128.1zM316.8 38.63C321.3 43.15 325.4 47.94 329.1 52.93L375 7.029C384.4-2.343 399.6-2.343 408.1 7.029C418.3 16.4 418.3 31.6 408.1 40.97L350.7 99.2C355.9 120.7 355.4 143.2 349.3 164.5C369.6 158.7 391.1 157.1 411.7 162.4L471 103C480.4 93.66 495.6 93.66 504.1 103C514.3 112.4 514.3 127.6 504.1 136.1L458.8 183.1C463.3 186.3 467.6 189.8 471.7 193.7C426.3 199.9 386.5 223.5 359.1 257.4C352 253.3 345.4 248.3 339.4 242.3L327.2 230.1L295.3 261.1C312.5 263.6 329.5 268.8 345 277.4C329.1 303.9 320 334.9 320 368C320 369 320 370.1 320 371.1C290.9 375.6 260 366.6 237.6 344.1L225.4 331.9L193.5 363.8C221.1 366.5 249.7 378.8 271.5 400.7L282.8 411.1C289.1 418.2 289.1 428.4 282.8 434.6L271.5 445.9C234 483.4 173.3 483.4 135.8 445.9L123.5 433.7L54.63 502.6C42.13 515.1 21.87 515.1 9.372 502.6C-3.124 490.1-3.124 469.9 9.372 457.4L78.29 388.5L67.88 378C30.39 340.6 30.39 279.8 67.88 242.3L79.2 230.1C85.44 224.7 95.57 224.7 101.8 230.1L113.1 242.3C134.1 263.3 146.3 289.7 149.7 317.1L180.1 286.6L169.7 276.2C132.2 238.7 132.2 177.9 169.7 140.5L181 129.1C187.3 122.9 197.4 122.9 203.6 129.1L214.1 140.5C235.1 161.4 248.1 187.9 251.5 215.3L281.9 184.8L271.5 174.4C234 136.9 234 76.12 271.5 38.63L282.8 27.31C289.1 21.06 299.2 21.06 305.5 27.31L316.8 38.63zM352 368C352 288.5 416.5 224 496 224C575.5 224 640 288.5 640 368C640 447.5 575.5 512 496 512C416.5 512 352 447.5 352 368zM496 464C509.3 464 520 453.3 520 440C520 426.7 509.3 416 496 416C482.7 416 472 426.7 472 440C472 453.3 482.7 464 496 464zM479.1 288V368C479.1 376.8 487.2 384 495.1 384C504.8 384 511.1 376.8 511.1 368V288C511.1 279.2 504.8 272 495.1 272C487.2 272 479.1 279.2 479.1 288z"/>
</svg>
